X:1
T:12 Gesänge, Op.1
T:Ihr Auge
T:12 Gesänge, Op.1
T:1. Ihr Auge Her Eyes 
T:Robert Franz
T:Robert Burns (German text: Ferdinand Freiligrath) 
T:OpenScore (CC0)
T:OpenScore (CC0)
T:OpenScore (CC0)
C:Robert Franz
Z:Robert Burns
Z:OpenScore (CC0)
%%score 1 { ( 2 3 6 ) | ( 4 5 ) }
L:1/8
Q:1/4=100
M:2/4
K:A
V:1 treble nm="Singstimme\nVoice"
V:2 treble nm="Pianoforte"
V:3 treble 
V:6 treble 
V:4 bass 
V:5 bass 
V:1
"^Allegretto con grazia" z!mf! e/ d/ c B | A (G/A/) B (c/d/) | c e/ d/ c c | f (e/^d/) c ^B | %4
w: Ei- nen  schlim- men|Weg ging * ge- stern *|ich, ei- nen Weg, dem|ich nicht * wie- der|
w: Such a woe- ful|walk I * took last *|night, such a walk I|fear I'll * sad- ly|
 c2 c c/ c/ | (^d/A/)"^cresc." A c3/2 c/ | !>!e2!p! ^d c/ c/ | B c B3/2 A/ | G2 F F/ F/ | %9
w: trau'! Zwei sü- sse|Au- * gen tra- fen|mich, zwei sü- sse|Au- gen, lieb und|blau, zwei sü- sse|
w: rue, Two eyes I|met * di- vine- ly|bright, two love- ly|eyes so sweet and|blue, two love- ly|
 A A G3/2 F/ | E2 z2 | z4 | z2!p! E E/ E/ | F3/2 F/ (GA/) B/ |"^cresc." E2 A A/ A/ | B3/2 B/ e d | %16
w: Au- gen, lieb und|blau.||Nicht war's ihr|blond und wal- * lend|Haar, nicht war's ihr|Mund, die Ros' im|
w: eyes so sweet and|blue.||'Twas not her|gol- den flow- * ing|hair, 'twas not her|mouth, a rose in|
 c2!p! c/ B/ c/ d/ | e3/2 A/ A z/ A/ | !fermata!A2!p! B B/ B/ | d d c3/2 B/ | A2 z2 | z4 | z4 | %23
w: Tau. auch nicht ih- re|wei- sse Brust, es|war ihr sü- sses|Au- ge, lieb und|blau.|||
w: dew, al- so not her|li- ly breast so|fair, my wound was|from her eyes so|blue.|||
 z (e/d/) c B | A (G/A/) B (c/d/) | c (e/d/) c c | f (e/^d/) c ^B | c2 c c/ c/ | %28
w: Ihr * Aug' hat|mir das * Herz be- *|tört, ihr * Au- ge|mit der * dunk- len|Brau; o tief- re|
w: Her * eyes have|robbed me * of my *|heart, her * eyes so|lus- trous, * pure and|true; oh deep- er|
"^cresc." (^d/A/) A c3/2 c/ | e2 ^d c/ c/ | B c B3/2 A/ | G2!p! F F/ F/ | A A G3/2 F/ | E2 z2 | %34
w: Wun- * den als ein|Schwert, schlug mir dies|Au- ge, lieb und|blau, schlug mir dies|Au- ge, lieb und|blau.|
w: wound * than dag- ger's|smart, struck me these|eyes so heav'n- ly|blue, struck me these|eyes so heav'n- ly|blue.|
 z4 | z3/2!p! E/ E3/2 E/ | F z/"^cresc." F/ G3/2 G/ | A z/[Q:1/4=90]"^riten." A/ !fermata!B z/ B/ | %38
w: |Ge- duld, mein|Herz, Ge- duld, Ge-|duld! viel- leicht! doch|
w: |Be still my|heart, be still, be|still! per- haps! yet|
[Q:1/4=100]"^a tempo"!f![Q:1/4=100]"_a tempo" c3/4 c/4 c z c3/4 c/4 | %39
w: we- he mir! weis't sie|
w: woe is me! should she|
!>(! e3/2 ^d/!>)! c!p! c3/4 c/4 | e3/2 ^d/ c z | z/!mf! c/ c/ c/!>(! =d3/2!>)! c/ | %42
w: rauh mich ab; weis't sie|rauh mich ab:|an mei- nem To- de|
w: me re- fuse, should she|me re- fuse:|I'll lay my ear- ly|
 B z!p! B B/ B/ | d d c3/2 B/ | A2 z2 | z4 | !fermata!z4 |] %47
w: schuld ist dann ihr|Au- ge, lieb und|blau.|||
w: death, to her dear|eyes so sweet and|blue.|||
V:2
!mf! z (!arpeggio!e/d/) (.[CAc].[DGB]) | (.[CFA].[CFA].[DAB].[DGB]) | %2
 [CAc](!arpeggio!e/d/)!<(![CAc]!<)![CAc] | cc(.c.^B) | [EGc]2 (.[Cc].[Cc]/.[Cc]/) | c"_cresc."ccc | %6
 c2!p! [EF^d][EFc] | [E^GB][E=G^A]!>(! [F=A]2!>)! | G2 (.[CEF].[B,EF]/.[A,EF]/) | %9
!>(! (^D/E/!>)!F) [A,B,D]2 | [G,B,E]2 (.[CEF].[B,EF]/.[A,EF]/) |!>(! A2!>)! (G>F | %12
 [G,B,E]2)!p! (B,/=D/C/B,/) | (.[^A,CF]/>.[A,CF]/.[A,CF]) (D/F/E/D/) | %14
"_cresc." (.[=A,CE=A]/>.[A,CEA]/.[A,CEA]) (E/G/F/E/) | (.[DFB]/>.[DFB]/!<(!.[DFB])!<)! e!>(!d!>)! | %16
 [CAc]2!p! (.[B,E].[B,E]) |!<(! B>!<)!A!>(! A!>)! z | !>!!fermata![DA]2!p! (.[FAB].[EAB]/.[DAB]/) | %19
!>(! (G/A/B)!>)! [DEG]2 | [CEA]2!p! (.[FAB].[EAB]/.[DAB]/) |!>(! d2!>)! (c>B | [CA]2) z2 | %23
!mf! z!<(! (!arpeggio!e/d/)!<)! (.[CAc].[DGB]) | (.[CFA].[CFA].[DAB].[DGB]) | %25
 [CAc](!arpeggio!e/d/)!<(![CAc][CAc]!<)! | cc(.c.^B) | [EGc]2 (.[Cc].[Cc]/.[Cc]/) | %28
"_cresc." c!<(!ccc!<)! | [=Gc]2!>(! [EF^d]!>)![EFc] |!<(! [EGB]!<)![E=G^A]!>(! [F=A]2!>)! | %31
 ([EG]2 (.[CEF]).[B,EF]/.[A,EF]/) |!>(! (^D/E/!>)!F) [A,B,D]2 | [G,B,E]2 (.[CEF].[B,EF]/.[A,EF]/) | %34
 A2 (G>F | [G,B,E]2)!p! (B,/=D/C/B,/) | (.[^A,CF]/>.[A,CF]/.[A,CF])"_cresc." (D/F/E/D/) | %37
 (.[CEA]/>.[CEA]/.[CEA])"_riten. e dim." (F/A/)!fermata!G/ z/ |!f! [CGc]/>[CGc]/[CGc] z2 | %39
 (e>!>(!^d!>)! [EGc]) z |!p! (e>^d c) z |!mf! ([=Gc]2!>(! =d>c!>)! | %42
 B) z!p! (.[FAB].[EAB]/.[DAB]/) |!>(! (^G/A/!>)!B) [DEG]2 | [CEA]2!p! (.[FAB].[EAB]/.[DAB]/) | %45
 d2 ([EGc]>[DGB]) | [CA]2 !fermata!z2 |] %47
V:3
 x A x2 | x4 | x A x2 | (AG/!>(!F/) E!>)![FG] | x4 | ^DDE((D/E/)) | =G2 x2 | x2 E^D | (E^D) x2 | %9
 A,2 x2 | x4 | (^D/E/F) D2 | x4 | x4 | x4 | x2 A x | x4 | E2- E x | x4 | D2 x2 | x4 | (G/A/B) E>D | %22
 x4 | x A x2 | x4 | x A x2 | (AG/!>(!F/) E!>)![FG] | x4 | ^DDED/E/ | x4 | x2 E^D | E^D x2 | %32
 A,2 x2 | x4 | (^D/!>(!E/F)!>)! D2 | x4 | x4 | x4 | x4 | A2 x2 | =G2- G x | x2 F2- | F x3 | D2 x2 | %44
 x4 | (G/!>(!A/B)!>)! x2 | x4 |] %47
V:4
 z !arpeggio![F,A,](.E,.E,) | (.F,.F,.E,.E,) | A,,!arpeggio![F,A,]E,F,/E,/ | %3
 ([^D,F,][E,G,]/[F,A,]/).G,.G,, | C,2 ([E,G,][^D,F,]/[E,G,]/) | [F,A,][F,A,]G,([F,A,]/[G,C]/ | %6
!ped! !>![A,E]2)!ped-up! ^A,A, | B,2 B,,2 | (C,B,,) (.A,,.G,,/.F,,/) | (B,,2 B,,,2 | %10
 E,,2) (.A,,.G,,/.F,,/) | A,2 B,>A, | E,,2 [E,G,][E,G,] |!ped! E,,2 E,!ped-up!E, | %14
!ped! E,,2!ped-up! [E,C][E,C] |!ped! E,,2!ped-up! ED |!ped! [E,A,]2!ped-up! (.[D,G,].[D,G,]) | %17
!ped! [C,=G,]2- [C,G,] z!ped-up! |!ped! !fermata![D,F,]2!ped-up! (.D,.C,/.B,,/) | (E,2 E,,2 | %20
 A,,2) (.D,.C,/.B,,/) | (E,2 E,,2 | A,,2) z2 | z !arpeggio![F,A,](.E,.E,) | F,F,E,E,, | %25
 A,,!arpeggio![F,A,]E,F,/E,/ | ([^D,F,][E,G,]/[F,A,]/).G,.G,, | C,2 ([E,G,][^D,F,]/[E,G,]/) | %28
 [F,A,][F,A,]G,([F,A,]/[G,C]/ |!ped! [A,E]2)!ped-up! ^A,A, | B,2 B,,2 | (C,B,,) (.A,,.G,,/.F,,/) | %32
 (B,,2 B,,,2 | E,,2) (.A,,.G,,/.F,,/) | A,2 B,>A, | E,,2 [E,G,][E,G,] | %36
!ped! E,,2!ped-up! [E,B,][E,B,] |!ped! E,,2!ped-up! !fermata![E,D] z | %38
!ped! [^E,B,]/>[E,B,]/[E,B,]!ped-up! z2 | (E>^D C) z | (C2 E) z | ([^A,E]2 B,>C | %42
 D) z (.D,.C,/.B,,/) | (E,2 E,,2 | A,,2) (.D,.C,/.B,,/) | ([E,D]2 E,,2 | A,,2) !fermata!z2 |] %47
V:5
 x E/D/ x2 | x4 | x E/D/ x2 | x4 | x4 | x4 | x4 | x4 | x4 | x4 | x4 | B,,2 B,,,2 | x4 | %13
 x2 B,F,/G,/ | x4 | x x [F,A,]2 | x4 | x4 | x4 | x4 | x4 | D2 x2 | x4 | x E/D/ x2 | x4 | %25
 x (E/D/) x2 | x4 | x4 | x4 | x4 | x4 | x4 | x4 | x4 | B,,2 B,,,2 | x4 | x x x2 | x x x2 | x4 | %39
 [F,A,]2 G, x | A,2- A, x | x4 | x4 | x4 | x4 | x4 | x4 |] %47
V:6
 x4 | x4 | x4 | x4 | x4 | x4 | x4 | x4 | x4 | x4 | x4 | x4 | x4 | x4 | x4 | x4 | x4 | x4 | x4 | %19
 x4 | x4 | x2 G2 | x4 | x4 | x4 | x4 | x4 | x4 | x4 | x4 | x4 | x4 | x4 | x4 | x4 | x4 | x4 | x4 | %38
 x4 | x4 | x4 | x4 | x4 | x4 | x4 | x4 | x4 |] %47

